X: 12
T: The South Wind
B: begged borrowed and stolen
M:3/4
L:1/8
R: waltz
Q: 1/4=100
K:Gmajor
V:1 
dc|:"G"B3A G2|B3c d2|"D"A4 A2|A4 dc|
"G"B3A G2|"C"E3D E2|1 "G"G4 G2|G4:|2 "G"G4 G2| G2 B2 d2:|
"G"g4 g2|"C"g3f e2|"G"d4 d2|d4 c2| 
"G"B3A G2|B3c d2|"D"A4 A2|A4 d2|
"G"g3a f2|"C"g3f e2|"G"d4 d2|d4 c2|
 "Em"B3A G2|"D"Acc2 F2|"G"G4 G2|G4||
% abcbook-tune_id 62828a3a8410bb63dcd60274


% abcbook-boost 0
% abcbook-tablature 
% abcbook-transpose 
% abcbook-lastupdated 1652725431048
% abcbook-soundfonts 
% abcbook-repeats 3
% abc-sessionorg_id 601
% abc-sessionorg_setting 0
% abc-sessionorg_setting_id 32108
% abc-boost 1

